X: 120017
Q: "Highland Schottische."
M: C
L: 1/8
K: A
[|\
vA>vcue>u=g vf>vdue>ud | c>Ac>e a>ec>B |\
c>Ac>e a2f>=g |\
a>f=g>e f>de>c | d>B=G>B =g>dB>G |]|\
a>f=g>e f>de>c | d>B=G>B =g>dB>G |]


